X: 15
T: Gay Gordons
O: Scotland
F: http://www.youtube.com/watch?v=8DizrIpehgE
M: 2/4
L: 1/8
Q: 1/4=180
K: Ador
%%MIDI gchord fc
%%MIDI program 23
%%MIDI bassprog 32
%%MIDI chordprog 24
A3F     |:\
"A"E2A,2|E3D       |E2A2    |A3F    |\
"G"G2G,2|"G"B,2B,G,|"G"B,2D2|D2AF   |
"A"E2A,2|E3D       |E2A2    |"A"A3F |\
"G"G2E2 |E2DB,     |"A"A,4  |"A"A,4 :|
A3F     |:\
"A"E2A2 |A3F       |G2FE    |A3F    |\
"G"G2G,2|B,2B,G,   |B,2D2   |D2AF   |
"A"E2A,2|E3D       |E2A2    |A3F    |\
"G"G2E2 |E2DB,     |"A"A,4  |A,4    :|
A3F     |:\
"A"E2A,2|^C2B,A,   |ED^CD   |E2GE   |\
"G"D2G,2|B,2A,G,   |DCB,C   |D2AF   |
"A"E2A,2|^C2B,A,   |ED^CD   |E2GE   |\
"G"G2E2 |E2DB,     |"A"A,4  |A,4    :|
